svg/thwiki.svg

<?xml version="1.0" encoding="UTF-8" standalone="no"?>
<!DOCTYPE svg PUBLIC "-//W3C//DTD SVG 1.1//EN" "http://www.w3.org/Graphics/SVG/1.1/DTD/svg11.dtd">
<svg width="100%" height="100%" viewBox="0 0 102 111" version="1.1" xmlns="http://www.w3.org/2000/svg" xmlns:xlink="http://www.w3.org/1999/xlink" xml:space="preserve" xmlns:serif="http://www.serif.com/" style="fill-rule:evenodd;clip-rule:evenodd;stroke-linejoin:round;stroke-miterlimit:2;">
    <g transform="matrix(1.01402,0,0,1.01402,-715.388,-2467.23)">
        <g>
            <path d="M749.811,2503.33c0.878,2.15 2.118,4.16 3.693,5.93c-0.621,0.48 -1.281,0.93 -1.98,1.33c-8.351,4.82 -19.046,1.96 -23.867,-6.4c-4.821,-8.35 -1.956,-19.04 6.395,-23.86c0.699,-0.41 1.414,-0.76 2.141,-1.05c0.753,2.27 1.887,4.36 3.327,6.21c0.229,-1.42 0.643,-2.79 1.217,-4.07c-0.56,-0.97 -1.03,-2.01 -1.395,-3.09c1.156,-0.24 2.323,-0.35 3.483,-0.34c0.908,-1.15 1.967,-2.17 3.147,-3.04c-2.425,-0.38 -4.926,-0.33 -7.381,0.17c-0.106,-0.77 -0.161,-1.57 -0.161,-2.38c-0,-9.64 7.829,-17.47 17.472,-17.47c9.642,0 17.471,7.83 17.471,17.47c0,0.81 -0.055,1.61 -0.161,2.38c-2.61,-0.53 -5.272,-0.55 -7.84,-0.09c1.142,0.85 2.169,1.85 3.052,2.97c1.343,-0.05 2.698,0.06 4.037,0.33c-0.434,1.29 -1.016,2.51 -1.723,3.64c0.526,1.3 0.89,2.68 1.067,4.11c1.668,-1.98 2.971,-4.29 3.805,-6.8c0.727,0.29 1.442,0.64 2.141,1.05c8.351,4.82 11.217,15.51 6.395,23.86c-4.821,8.36 -15.516,11.22 -23.867,6.4c-0.698,-0.4 -1.359,-0.85 -1.98,-1.33c1.642,-1.85 2.92,-3.95 3.803,-6.2c-1.322,0.57 -2.735,0.98 -4.21,1.18c-0.567,0.98 -1.232,1.91 -1.99,2.77c-0.74,-0.84 -1.39,-1.74 -1.948,-2.69c-1.445,-0.15 -2.835,-0.49 -4.143,-0.99Zm-4.423,-11.47l0.003,0.01l1.923,-0.73c-0.367,-0.97 -0.567,-2.02 -0.567,-3.12c-0,-0.03 -0,-0.07 0.001,-0.1l-1.124,-0.01l0,-0.01l-2.314,-0.02c-0.001,0.04 -0.001,0.09 -0.001,0.13c-0,1.53 0.279,2.99 0.787,4.34l1.292,-0.49Zm4.869,5.68l0.002,0l1.01,-1.79c-0.961,-0.54 -1.811,-1.26 -2.507,-2.1l-0.863,0.71l-0.005,-0.01l-1.789,1.47c0.965,1.17 2.144,2.17 3.475,2.92l0.677,-1.2Zm-4.945,-13.15l-0.002,0l1.938,0.69c0.369,-1.05 0.929,-2.01 1.639,-2.84l-0.857,-0.73l0.004,-0.01l-1.756,-1.51c-0.985,1.15 -1.762,2.48 -2.274,3.94l1.308,0.46Zm15.672,13.15l0.677,1.2c1.331,-0.75 2.51,-1.75 3.475,-2.92l-1.789,-1.47l-0.005,0.01l-0.863,-0.71c-0.696,0.84 -1.546,1.56 -2.507,2.1l1.01,1.79l0.002,0Zm4.869,-5.68l1.292,0.49c0.508,-1.35 0.787,-2.81 0.787,-4.34c-0,-0.04 -0,-0.09 -0.001,-0.13l-2.314,0.02l-0,0.01l-1.124,0.01c0.001,0.03 0.001,0.07 0.001,0.1c-0,1.1 -0.2,2.15 -0.567,3.12l1.923,0.73l0.003,-0.01Zm0.076,-7.47l1.308,-0.46c-0.512,-1.46 -1.289,-2.79 -2.274,-3.94l-1.756,1.51l0.004,0.01l-0.857,0.73c0.71,0.83 1.27,1.79 1.639,2.84l1.938,-0.69l-0.002,0Zm-4.746,-5.78l0.71,-1.19c-1.29,-0.77 -2.731,-1.31 -4.268,-1.56l-0.225,1.38l-0.15,0.91l-0.183,1.11c1.106,0.19 2.144,0.57 3.072,1.12l1.049,-1.76l-0.005,-0.01Zm-11.125,0l-0.005,0.01l1.049,1.76c0.928,-0.55 1.966,-0.93 3.072,-1.12l-0.183,-1.11l-0.15,-0.91l-0.225,-1.38c-1.537,0.25 -2.978,0.79 -4.268,1.56l0.71,1.19Zm7.404,19.23l-0.204,-1.1c-0.531,0.1 -1.078,0.15 -1.638,0.15c-0.559,0 -1.106,-0.05 -1.637,-0.15l-0.204,1.1l-0.003,0l-0.425,2.27c0.736,0.14 1.494,0.21 2.269,0.21c0.776,0 1.534,-0.07 2.27,-0.21l-0.425,-2.27l-0.003,0Zm-51.962,-19.3l-0,-6.63c-0,-8.32 4.44,-16.01 11.648,-20.17l3.53,-2.04c-2.753,4.22 -4.427,9.38 -5.18,14.82c-0.14,0.24 -0.276,0.49 -0.406,0.73c-4.314,3.71 -7.758,8.19 -9.592,13.29Zm33.66,-39.51l4.813,-2.78c7.207,-4.16 16.088,-4.16 23.295,0l4.813,2.78c-3.157,-0.21 -6.375,0.11 -9.553,0.88c-2.132,-0.61 -4.364,-0.94 -6.687,-0.94c-2.296,0 -4.524,0.37 -6.667,1.05c-3.328,-0.84 -6.704,-1.22 -10.014,-0.99Zm51.403,10.67l3.53,2.04c7.208,4.16 11.648,11.85 11.648,20.17l-0,6.63c-1.688,-4.69 -4.739,-8.86 -8.578,-12.39c-0.264,-0.56 -0.554,-1.11 -0.868,-1.65c-0.232,-0.4 -0.477,-0.8 -0.733,-1.18c-0.823,-4.99 -2.448,-9.71 -4.999,-13.62Zm15.178,44.92l-0,8.27c-0,8.32 -4.44,16.01 -11.648,20.17l-3.863,2.23c1.833,-2.68 3.199,-5.71 4.148,-8.93c1.356,-1.35 2.54,-2.87 3.517,-4.56c1.661,-2.87 2.644,-5.93 3.062,-9.07c2.055,-2.51 3.7,-5.23 4.784,-8.11Zm-33.683,41.16l-4.79,2.77c-7.207,4.16 -16.088,4.16 -23.295,0l-4.79,-2.77c3.996,0.25 8.167,-0.39 12.266,-1.69c1.432,0.31 2.898,0.47 4.395,0.47c1.446,0 2.856,-0.13 4.228,-0.38c4.009,1.24 8.081,1.85 11.986,1.6Zm-51.047,-10.49l-3.863,-2.23c-7.208,-4.16 -11.648,-11.85 -11.648,-20.17l-0,-8.27c1.086,2.89 2.735,5.61 4.795,8.13c0.486,2.76 1.425,5.44 2.896,7.99c0.93,1.61 2.049,3.06 3.325,4.36c0.951,3.69 2.425,7.16 4.495,10.19Zm16.112,-73.21c5.038,-5.95 11.462,-10.12 18.718,-10.12c7.835,0 14.47,4.21 19.517,10.21c-4.354,-0.65 -8.91,-0.67 -13.299,-0.17c-0.61,0.07 -1.172,0.23 -1.675,0.47c-1.444,-0.32 -2.944,-0.48 -4.482,-0.48c-1.539,0 -3.039,0.16 -4.482,0.48c-0.504,-0.24 -1.066,-0.4 -1.676,-0.47c-4.162,-0.48 -8.473,-0.48 -12.621,0.08Zm-15.072,44.37l-3.964,-6.94c-3.409,-7.76 -4.285,-16.3 -0.088,-23.57c4.038,-7 12.195,-10.38 20.961,-11.21l6.639,-0.01c-6.245,3.58 -10.456,10.32 -10.456,18.02c-0,1.13 0.089,2.24 0.262,3.31c-1.019,0.39 -2.021,0.87 -2.997,1.43c-6.956,4.02 -10.709,11.46 -10.357,18.97Zm10.873,23.75c-7.267,-1.5 -13.67,-4.94 -17.143,-10.96c-3.737,-6.47 -3.606,-13.91 -1.266,-20.98c1.646,4.51 4.12,8.83 7.061,12.63c0.457,0.6 0.993,1.06 1.6,1.38c0.423,1.22 0.967,2.41 1.634,3.57c0.77,1.33 1.665,2.55 2.662,3.64c0.042,0.55 0.189,1.12 0.432,1.68c1.362,3.15 3.052,6.22 5.02,9.04Zm59.615,-6.21l-10.87,6.38c-0.939,0.29 -1.901,0.54 -2.879,0.76c2.234,-3.09 4.097,-6.51 5.539,-10.02c0.284,-0.69 0.42,-1.39 0.393,-2.07c0.842,-0.98 1.604,-2.05 2.271,-3.2c0.667,-1.16 1.211,-2.35 1.635,-3.57c0.606,-0.32 1.142,-0.78 1.6,-1.38c2.613,-3.38 4.859,-7.17 6.482,-11.14c2.204,6.95 2.256,14.22 -1.405,20.56c-0.782,1.35 -1.711,2.58 -2.766,3.68Zm0.192,-49.7l0.001,0.01c0.035,0.23 1.215,2.54 2.172,3.83c0.565,1.32 0.982,2.67 1.263,4.04l0.455,4.29c0.092,6.92 -2.75,14.11 -6.881,20.2c0.432,-7.58 -3.326,-15.13 -10.346,-19.18c-0.975,-0.56 -1.978,-1.04 -2.997,-1.43c0.173,-1.07 0.263,-2.18 0.263,-3.31c-0,-7.72 -4.226,-14.46 -10.489,-18.04l6.344,0c8.17,0.72 15.851,3.63 20.215,9.59Zm-27.229,68.19c3.933,-1.75 7.448,-4.49 10.461,-7.84c5.095,-0.74 9.933,-2.3 13.97,-4.8c-1.996,4.3 -5.015,7.96 -9.274,10.42c-4.549,2.62 -9.814,3.13 -15.157,2.22Zm-55.593,-35.41c-1.811,-3.16 -2.87,-6.61 -2.87,-10.26c-0,-5.7 2.233,-10.77 5.763,-15.05c-0.751,3.86 -0.563,7.88 0.332,11.84c-1.894,4.36 -3.076,8.94 -3.225,13.47Zm57.806,-55.04c4.715,-0.42 9.393,0.37 13.65,2.82c5.133,2.97 8.393,8.06 10.172,14.01c-3.249,-2.73 -7.306,-4.62 -11.732,-5.78c-3.293,-4.6 -7.373,-8.52 -12.09,-11.05Zm-48.202,17.5c1.732,-6.23 5.04,-11.6 10.363,-14.68c4.52,-2.61 9.513,-3.33 14.522,-2.73c-4.442,2.5 -8.396,6.31 -11.67,10.77c-5.062,1.23 -9.68,3.39 -13.215,6.64Zm26.914,72.83c-5.578,1.08 -11.101,0.63 -15.845,-2.1c-4.693,-2.71 -7.88,-6.88 -9.853,-11.75c4.234,2.73 9.394,4.39 14.829,5.13c3.144,3.72 6.816,6.79 10.869,8.72Zm33.994,-19.56c-4.905,10.11 -13.492,18.89 -24.577,18.89c-10.178,0 -18.652,-8.54 -23.774,-18.45c6.262,3.76 14.328,4.1 21.097,0.2c0.976,-0.57 1.888,-1.2 2.735,-1.89c0.846,0.69 1.759,1.32 2.734,1.89c7.02,4.05 15.435,3.53 21.785,-0.64Zm20.722,-15.41c-0.231,-4.01 -1.26,-8.06 -2.863,-11.95l-0.021,-0.21c1.15,-4.17 1.543,-8.45 0.901,-12.56c3.11,4.08 5.042,8.84 5.042,14.14c-0,3.78 -1.133,7.33 -3.059,10.58Z" style="fill:url(#_Linear1);"/>
        </g>
    </g>
    <defs>
        <linearGradient id="_Linear1" x1="0" y1="0" x2="1" y2="0" gradientUnits="userSpaceOnUse" gradientTransform="matrix(7.84545e-15,128.126,-128.126,7.84545e-15,755.62,2422.86)"><stop offset="0" style="stop-color:rgb(255,181,30);stop-opacity:1"/><stop offset="0.58" style="stop-color:rgb(255,165,173);stop-opacity:1"/><stop offset="1" style="stop-color:rgb(255,158,238);stop-opacity:1"/></linearGradient>
    </defs>
</svg>

<?xml version="1.0" encoding="UTF-8" standalone="no"?>
<!DOCTYPE svg PUBLIC "-//W3C//DTD SVG 1.1//EN" "http://www.w3.org/Graphics/SVG/1.1/DTD/svg11.dtd">
<svg width="100%" height="100%" viewBox="0 0 102 111" version="1.1" xmlns="http://www.w3.org/2000/svg" xmlns:xlink="http://www.w3.org/1999/xlink" xml:space="preserve" xmlns:serif="http://www.serif.com/" style="fill-rule:evenodd;clip-rule:evenodd;stroke-linejoin:round;stroke-miterlimit:2;">
    <g transform="matrix(1,0,0,1,-622.406,-2431.67)">
        <g transform="matrix(1.01402,0,0,1.01402,-92.9822,-35.5612)">
            <path d="M749.811,2503.33C750.689,2505.48 751.929,2507.49 753.504,2509.26C752.883,2509.74 752.223,2510.19 751.524,2510.59C743.173,2515.41 732.478,2512.55 727.657,2504.19C722.836,2495.84 725.701,2485.15 734.052,2480.33C734.751,2479.92 735.466,2479.57 736.193,2479.28C736.946,2481.55 738.08,2483.64 739.52,2485.49C739.749,2484.07 740.163,2482.7 740.737,2481.42C740.177,2480.45 739.707,2479.41 739.342,2478.33C740.498,2478.09 741.665,2477.98 742.825,2477.99C743.733,2476.84 744.792,2475.82 745.972,2474.95C743.547,2474.57 741.046,2474.62 738.591,2475.12C738.485,2474.35 738.43,2473.55 738.43,2472.74C738.43,2463.1 746.259,2455.27 755.902,2455.27C765.544,2455.27 773.373,2463.1 773.373,2472.74C773.373,2473.55 773.318,2474.35 773.212,2475.12C770.602,2474.59 767.94,2474.57 765.372,2475.03C766.514,2475.88 767.541,2476.88 768.424,2478C769.767,2477.95 771.122,2478.06 772.461,2478.33C772.027,2479.62 771.445,2480.84 770.738,2481.97C771.264,2483.27 771.628,2484.65 771.805,2486.08C773.473,2484.1 774.776,2481.79 775.61,2479.28C776.337,2479.57 777.052,2479.92 777.751,2480.33C786.102,2485.15 788.968,2495.84 784.146,2504.19C779.325,2512.55 768.63,2515.41 760.279,2510.59C759.581,2510.19 758.92,2509.74 758.299,2509.26C759.941,2507.41 761.219,2505.31 762.102,2503.06C760.78,2503.63 759.367,2504.04 757.892,2504.24C757.325,2505.22 756.66,2506.15 755.902,2507.01C755.162,2506.17 754.512,2505.27 753.954,2504.32C752.509,2504.17 751.119,2503.83 749.811,2503.33ZM745.388,2491.86L745.391,2491.87L747.314,2491.14C746.947,2490.17 746.747,2489.12 746.747,2488.02C746.747,2487.99 746.747,2487.95 746.748,2487.92L745.624,2487.91L745.624,2487.9L743.31,2487.88C743.309,2487.92 743.309,2487.97 743.309,2488.01C743.309,2489.54 743.588,2491 744.096,2492.35L745.388,2491.86ZM750.257,2497.54L750.259,2497.54L751.269,2495.75C750.308,2495.21 749.458,2494.49 748.762,2493.65L747.899,2494.36L747.894,2494.35L746.105,2495.82C747.07,2496.99 748.249,2497.99 749.58,2498.74L750.257,2497.54ZM745.312,2484.39L745.31,2484.39L747.248,2485.08C747.617,2484.03 748.177,2483.07 748.887,2482.24L748.03,2481.51L748.034,2481.5L746.278,2479.99C745.293,2481.14 744.516,2482.47 744.004,2483.93L745.312,2484.39ZM760.984,2497.54L761.661,2498.74C762.992,2497.99 764.171,2496.99 765.136,2495.82L763.347,2494.35L763.342,2494.36L762.479,2493.65C761.783,2494.49 760.933,2495.21 759.972,2495.75L760.982,2497.54L760.984,2497.54ZM765.853,2491.86L767.145,2492.35C767.653,2491 767.932,2489.54 767.932,2488.01C767.932,2487.97 767.932,2487.92 767.931,2487.88L765.617,2487.9L765.617,2487.91L764.493,2487.92C764.494,2487.95 764.494,2487.99 764.494,2488.02C764.494,2489.12 764.294,2490.17 763.927,2491.14L765.85,2491.87L765.853,2491.86ZM765.929,2484.39L767.237,2483.93C766.725,2482.47 765.948,2481.14 764.963,2479.99L763.207,2481.5L763.211,2481.51L762.354,2482.24C763.064,2483.07 763.624,2484.03 763.993,2485.08L765.931,2484.39L765.929,2484.39ZM761.183,2478.61L761.893,2477.42C760.603,2476.65 759.162,2476.11 757.625,2475.86L757.4,2477.24L757.25,2478.15L757.067,2479.26C758.173,2479.45 759.211,2479.83 760.139,2480.38L761.188,2478.62L761.183,2478.61ZM750.058,2478.61L750.053,2478.62L751.102,2480.38C752.03,2479.83 753.068,2479.45 754.174,2479.26L753.991,2478.15L753.841,2477.24L753.616,2475.86C752.079,2476.11 750.638,2476.65 749.348,2477.42L750.058,2478.61ZM757.462,2497.84L757.258,2496.74C756.727,2496.84 756.18,2496.89 755.62,2496.89C755.061,2496.89 754.514,2496.84 753.983,2496.74L753.779,2497.84L753.776,2497.84L753.351,2500.11C754.087,2500.25 754.845,2500.32 755.62,2500.32C756.396,2500.32 757.154,2500.25 757.89,2500.11L757.465,2497.84L757.462,2497.84ZM705.5,2478.54L705.5,2471.91C705.5,2463.59 709.94,2455.9 717.148,2451.74L720.678,2449.7C717.925,2453.92 716.251,2459.08 715.498,2464.52C715.358,2464.76 715.222,2465.01 715.092,2465.25C710.778,2468.96 707.334,2473.44 705.5,2478.54ZM739.16,2439.03L743.973,2436.25C751.18,2432.09 760.061,2432.09 767.268,2436.25L772.081,2439.03C768.924,2438.82 765.706,2439.14 762.528,2439.91C760.396,2439.3 758.164,2438.97 755.841,2438.97C753.545,2438.97 751.317,2439.34 749.174,2440.02C745.846,2439.18 742.47,2438.8 739.16,2439.03ZM790.563,2449.7L794.093,2451.74C801.301,2455.9 805.741,2463.59 805.741,2471.91L805.741,2478.54C804.053,2473.85 801.002,2469.68 797.163,2466.15C796.899,2465.59 796.609,2465.04 796.295,2464.5C796.063,2464.1 795.818,2463.7 795.562,2463.32C794.739,2458.33 793.114,2453.61 790.563,2449.7ZM805.741,2494.62L805.741,2502.89C805.741,2511.21 801.301,2518.9 794.093,2523.06L790.23,2525.29C792.063,2522.61 793.429,2519.58 794.378,2516.36C795.734,2515.01 796.918,2513.49 797.895,2511.8C799.556,2508.93 800.539,2505.87 800.957,2502.73C803.012,2500.22 804.657,2497.5 805.741,2494.62ZM772.058,2535.78L767.268,2538.55C760.061,2542.71 751.18,2542.71 743.973,2538.55L739.183,2535.78C743.179,2536.03 747.35,2535.39 751.449,2534.09C752.881,2534.4 754.347,2534.56 755.844,2534.56C757.29,2534.56 758.7,2534.43 760.072,2534.18C764.081,2535.42 768.153,2536.03 772.058,2535.78ZM721.011,2525.29L717.148,2523.06C709.94,2518.9 705.5,2511.21 705.5,2502.89L705.5,2494.62C706.586,2497.51 708.235,2500.23 710.295,2502.75C710.781,2505.51 711.72,2508.19 713.191,2510.74C714.121,2512.35 715.24,2513.8 716.516,2515.1C717.467,2518.79 718.941,2522.26 721.011,2525.29ZM737.123,2452.08C742.161,2446.13 748.585,2441.96 755.841,2441.96C763.676,2441.96 770.311,2446.17 775.358,2452.17C771.004,2451.52 766.448,2451.5 762.059,2452C761.449,2452.07 760.887,2452.23 760.384,2452.47C758.94,2452.15 757.44,2451.99 755.902,2451.99C754.363,2451.99 752.863,2452.15 751.42,2452.47C750.916,2452.23 750.354,2452.07 749.744,2452C745.582,2451.52 741.271,2451.52 737.123,2452.08ZM722.051,2496.45L718.087,2489.51C714.678,2481.75 713.802,2473.21 717.999,2465.94C722.037,2458.94 730.194,2455.56 738.96,2454.73L745.599,2454.72C739.354,2458.3 735.143,2465.04 735.143,2472.74C735.143,2473.87 735.232,2474.98 735.405,2476.05C734.386,2476.44 733.384,2476.92 732.408,2477.48C725.452,2481.5 721.699,2488.94 722.051,2496.45ZM732.924,2520.2C725.657,2518.7 719.254,2515.26 715.781,2509.24C712.044,2502.77 712.175,2495.33 714.515,2488.26C716.161,2492.77 718.635,2497.09 721.576,2500.89C722.033,2501.49 722.569,2501.95 723.176,2502.27C723.599,2503.49 724.143,2504.68 724.81,2505.84C725.58,2507.17 726.475,2508.39 727.472,2509.48C727.514,2510.03 727.661,2510.6 727.904,2511.16C729.266,2514.31 730.956,2517.38 732.924,2520.2ZM792.539,2513.99L781.669,2520.37C780.73,2520.66 779.768,2520.91 778.79,2521.13C781.024,2518.04 782.887,2514.62 784.329,2511.11C784.613,2510.42 784.749,2509.72 784.722,2509.04C785.564,2508.06 786.326,2506.99 786.993,2505.84C787.66,2504.68 788.204,2503.49 788.628,2502.27C789.234,2501.95 789.77,2501.49 790.228,2500.89C792.841,2497.51 795.087,2493.72 796.71,2489.75C798.914,2496.7 798.966,2503.97 795.305,2510.31C794.523,2511.66 793.594,2512.89 792.539,2513.99ZM792.731,2464.29L792.732,2464.3C792.767,2464.53 793.947,2466.84 794.904,2468.13C795.469,2469.45 795.886,2470.8 796.167,2472.17L796.622,2476.46C796.714,2483.38 793.872,2490.57 789.741,2496.66C790.173,2489.08 786.415,2481.53 779.395,2477.48C778.42,2476.92 777.417,2476.44 776.398,2476.05C776.571,2474.98 776.661,2473.87 776.661,2472.74C776.661,2465.02 772.435,2458.28 766.172,2454.7L772.516,2454.7C780.686,2455.42 788.367,2458.33 792.731,2464.29ZM765.502,2532.48C769.435,2530.73 772.95,2527.99 775.963,2524.64C781.058,2523.9 785.896,2522.34 789.933,2519.84C787.937,2524.14 784.918,2527.8 780.659,2530.26C776.11,2532.88 770.845,2533.39 765.502,2532.48ZM709.909,2497.07C708.098,2493.91 707.039,2490.46 707.039,2486.81C707.039,2481.11 709.272,2476.04 712.802,2471.76C712.051,2475.62 712.239,2479.64 713.134,2483.6C711.24,2487.96 710.058,2492.54 709.909,2497.07ZM767.715,2442.03C772.43,2441.61 777.108,2442.4 781.365,2444.85C786.498,2447.82 789.758,2452.91 791.537,2458.86C788.288,2456.13 784.231,2454.24 779.805,2453.08C776.512,2448.48 772.432,2444.56 767.715,2442.03ZM719.513,2459.53C721.245,2453.3 724.553,2447.93 729.876,2444.85C734.396,2442.24 739.389,2441.52 744.398,2442.12C739.956,2444.62 736.002,2448.43 732.728,2452.89C727.666,2454.12 723.048,2456.28 719.513,2459.53ZM746.427,2532.36C740.849,2533.44 735.326,2532.99 730.582,2530.26C725.889,2527.55 722.702,2523.38 720.729,2518.51C724.963,2521.24 730.123,2522.9 735.558,2523.64C738.702,2527.36 742.374,2530.43 746.427,2532.36ZM780.421,2512.8C775.516,2522.91 766.929,2531.69 755.844,2531.69C745.666,2531.69 737.192,2523.15 732.07,2513.24C738.332,2517 746.398,2517.34 753.167,2513.44C754.143,2512.87 755.055,2512.24 755.902,2511.55C756.748,2512.24 757.661,2512.87 758.636,2513.44C765.656,2517.49 774.071,2516.97 780.421,2512.8ZM801.143,2497.39C800.912,2493.38 799.883,2489.33 798.28,2485.44L798.259,2485.23C799.409,2481.06 799.802,2476.78 799.16,2472.67C802.27,2476.75 804.202,2481.51 804.202,2486.81C804.202,2490.59 803.069,2494.14 801.143,2497.39Z" style="fill:url(#_Linear1);"/>
        </g>
    </g>
    <defs>
        <linearGradient id="_Linear1" x1="0" y1="0" x2="1" y2="0" gradientUnits="userSpaceOnUse" gradientTransform="matrix(7.84543e-15,128.126,-128.126,7.84543e-15,755.62,2422.86)"><stop offset="0" style="stop-color:rgb(255,181,30);stop-opacity:1"/><stop offset="0.58" style="stop-color:rgb(255,165,173);stop-opacity:1"/><stop offset="1" style="stop-color:rgb(255,158,238);stop-opacity:1"/></linearGradient>
    </defs>
</svg>
